svg/file_arrow_up_down.svg

<svg xmlns="http://www.w3.org/2000/svg" viewBox="0 0 24 24"><path d="M19 13c.34 0 .67.04 1 .09V8l-6-6H6c-1.11 0-2 .89-2 2v16c0 1.11.89 2 2 2h7.81c-.51-.88-.81-1.9-.81-3 0-3.31 2.69-6 6-6m-6-9.5L18.5 9H13zM23.5 20 21 23l-2.5-3H20v-4h2v4zm-4-2H18v4h-2v-4h-1.5l2.5-3z"/></svg>

<svg xmlns="http://www.w3.org/2000/svg" id="mdi-file-arrow-up-down" viewBox="0 0 24 24"><path d="M19 13C19.34 13 19.67 13.04 20 13.09V8L14 2H6C4.89 2 4 2.89 4 4V20C4 21.11 4.89 22 6 22H13.81C13.3 21.12 13 20.1 13 19C13 15.69 15.69 13 19 13M13 3.5L18.5 9H13V3.5M23.5 20L21 23L18.5 20H20V16H22V20H23.5M19.5 18H18V22H16V18H14.5L17 15L19.5 18Z" /></svg>
